!!!OTL: IN DES GARTENS DUNKLER LAUBE
!!!ARE: Europa, Mitteleuropa, Deutschland, Taunus, Niederreifenberg
!!!SCT: E0112A
!!!YEM: Copyright 1995, estate of Helmut Schaffrath.
**kern
*ICvox
*Ivox
*M3/4
*k[b-e-]
*B-:
{8f
8e-
=1
8d
8f
4b-
8d
8d
=2
8d
8f
4f}
{8e-
8d
=3
8e-
8g
4g
8.f
16e-
=4
4d
4r}
{8f
8f
=5
8f
8a
8cc
8ee-
8dd
8cc
=6
8b-
8f
4f}
{8f
8f
=7
4g
4cc
8.a
16a
=8
4b-
4r}
==
!!!AGN: erzaehlendes Volks - Lied, Sage, Liebe, Leid, Tod, Ballade ?
!!!ONB: ESAC (Essen Associative Code) Database: ERK1
!!!AMT: simple triple
!!!AIN: vox
!!!EED: Helmut Schaffrath
!!!EEV: 1.0
*-
